packages/dnb-eufemia/assets/icons/cloud_download_medium.svg

<svg width="24" height="24" viewBox="0 0 24 24" fill="none" xmlns="http://www.w3.org/2000/svg">
<path d="M5.06642 7.08701L5.2056 7.82398L5.06642 7.08701ZM18.9377 9.01201L18.1957 8.90256C18.1624 9.12825 18.2337 9.35682 18.3893 9.52363C18.5449 9.69044 18.768 9.77735 18.9954 9.75979L18.9377 9.01201ZM8.12631 8.32039C8.48545 8.52678 8.94389 8.40295 9.15027 8.04381C9.35666 7.68467 9.23283 7.22623 8.87369 7.01985L8.12631 8.32039ZM7.2 17.75C7.61421 17.75 7.95 17.4142 7.95 17C7.95 16.5858 7.61421 16.25 7.2 16.25V17.75ZM16.8 16.25C16.3858 16.25 16.05 16.5858 16.05 17C16.05 17.4142 16.3858 17.75 16.8 17.75V16.25ZM12.75 14.5C12.75 14.0858 12.4142 13.75 12 13.75C11.5858 13.75 11.25 14.0858 11.25 14.5H12.75ZM9.53033 19.4697C9.23744 19.1768 8.76256 19.1768 8.46967 19.4697C8.17678 19.7626 8.17678 20.2374 8.46967 20.5303L9.53033 19.4697ZM12 23L11.4697 23.5303C11.7626 23.8232 12.2374 23.8232 12.5303 23.5303L12 23ZM15.5303 20.5303C15.8232 20.2374 15.8232 19.7626 15.5303 19.4697C15.2374 19.1768 14.7626 19.1768 14.4697 19.4697L15.5303 20.5303ZM6 16.25C3.65279 16.25 1.75 14.3472 1.75 12H0.25C0.25 15.1756 2.82436 17.75 6 17.75V16.25ZM22.5 13C22.5 14.7949 21.0449 16.25 19.25 16.25V17.75C21.8734 17.75 24 15.6234 24 13H22.5ZM1.75 12C1.75 9.92481 3.23807 8.19557 5.2056 7.82398L4.92723 6.35003C2.26427 6.85297 0.25 9.19045 0.25 12H1.75ZM5.81155 7.17232C6.1951 3.8223 9.18356 1.75 12 1.75V0.25C8.54448 0.25 4.8049 2.7777 4.32128 7.00169L5.81155 7.17232ZM12 1.75C16.1428 1.75 18.6996 5.48681 18.1957 8.90256L19.6797 9.12146C20.3004 4.91319 17.1692 0.25 12 0.25V1.75ZM18.9954 9.75979C20.8494 9.61661 22.5 11.1369 22.5 13H24C24 10.259 21.6014 8.05407 18.8799 8.26424L18.9954 9.75979ZM5.2056 7.82398C6.20057 7.63606 7.24988 7.81674 8.12631 8.32039L8.87369 7.01985C7.68971 6.33946 6.27694 6.09512 4.92723 6.35003L5.2056 7.82398ZM6 17.75H7.2V16.25H6V17.75ZM16.8 17.75H19.25V16.25H16.8V17.75ZM8.46967 20.5303L11.4697 23.5303L12.5303 22.4697L9.53033 19.4697L8.46967 20.5303ZM12.5303 23.5303L15.5303 20.5303L14.4697 19.4697L11.4697 22.4697L12.5303 23.5303ZM11.25 14.5V23H12.75V14.5H11.25Z" fill="black"/>
</svg>

<svg width="24" height="24" viewBox="0 0 24 24" fill="none" xmlns="http://www.w3.org/2000/svg"><path d="m5.066 7.087.14.737-.14-.737Zm13.872 1.925-.742-.11a.75.75 0 0 0 .8.858l-.058-.748ZM8.126 8.32a.75.75 0 1 0 .748-1.3l-.748 1.3ZM7.2 17.75a.75.75 0 0 0 0-1.5v1.5Zm9.6-1.5a.75.75 0 0 0 0 1.5v-1.5Zm-4.05-1.75a.75.75 0 0 0-1.5 0h1.5Zm-3.22 4.97a.75.75 0 0 0-1.06 1.06l1.06-1.06ZM12 23l-.53.53a.75.75 0 0 0 1.06 0L12 23Zm3.53-2.47a.75.75 0 1 0-1.06-1.06l1.06 1.06ZM6 16.25A4.25 4.25 0 0 1 1.75 12H.25A5.75 5.75 0 0 0 6 17.75v-1.5ZM22.5 13a3.25 3.25 0 0 1-3.25 3.25v1.5A4.75 4.75 0 0 0 24 13h-1.5ZM1.75 12a4.252 4.252 0 0 1 3.456-4.176L4.927 6.35A5.752 5.752 0 0 0 .25 12h1.5Zm4.062-4.828C6.195 3.822 9.184 1.75 12 1.75V.25c-3.456 0-7.195 2.528-7.679 6.752l1.49.17ZM12 1.75c4.143 0 6.7 3.737 6.196 7.153l1.484.218C20.3 4.913 17.17.25 12 .25v1.5Zm6.995 8.01C20.85 9.617 22.5 11.137 22.5 13H24c0-2.741-2.399-4.946-5.12-4.736l.115 1.496ZM5.205 7.824a4.301 4.301 0 0 1 2.921.496l.748-1.3a5.801 5.801 0 0 0-3.947-.67l.279 1.474ZM6 17.75h1.2v-1.5H6v1.5Zm10.8 0h2.45v-1.5H16.8v1.5Zm-8.33 2.78 3 3 1.06-1.06-3-3-1.06 1.06Zm4.06 3 3-3-1.06-1.06-3 3 1.06 1.06Zm-1.28-9.03V23h1.5v-8.5h-1.5Z" fill="#000"/></svg>
